static/assets/template/assets/img/icons/essential/detailed/Searcg_Currency.svg

<svg height="144" viewBox="0 0 145 144" width="145" xmlns="http://www.w3.org/2000/svg"><g fill="none" fill-rule="evenodd" transform="translate(2 1)"><path d="m15.4 89.8c19.1 19.1 49.4 20.3 69.9 3.5l9.3 9.3c-.8 1.3-.7 3 .4 4.1l33.7 33.7c1.3 1.3 3.4 1.3 4.6 0l6.5-6.5c1.3-1.3 1.3-3.4 0-4.6l-33.7-33.7c-1.1-1.1-2.9-1.3-4.1-.4l-9.3-9.3c16.8-20.5 15.6-50.8-3.5-69.9-20.4-20.4-53.4-20.4-73.8 0s-20.4 53.5 0 73.8z" fill-rule="nonzero"/><path d="m138.6 135.4-6.3 6.3c-1.2 1.2-3.2 1.2-4.5 0l-32.6-32.6c-1.1-1.1-1.2-2.8-.4-4l-1.7-1.8-8.4-9.2c-19.8 16.2-49.4 15-67.9-3.4-19.7-19.7-18.3-49.6 1.4-69.3 19.7-19.7 51.7-19.7 71.3 0 18.5 18.5 19.6 47.8 3.4 67.6l7.1 7.2 1.8 1.8c1.2-.8 2.9-.7 4 .4l32.6 32.6c1.4 1.1 1.4 3.2.2 4.4z" fill-rule="nonzero"/><path d="m139.6 134.4-6.3 6.3c-1.2 1.2-3.2 1.2-4.5 0l-32.6-32.6c-1.1-1.1-1.2-2.8-.4-4l-1.7-1.8c2.3-2.4 4.7-4.8 7-7.2l.9.5c1.2-.8 2.9-.7 4 .4l33.5 34c1.3 1.1 1.3 3.2.1 4.4z" fill-rule="nonzero"/><g fill-rule="nonzero" transform="translate(36 21)"><path d="m16 61.5c-2 0-3.6-1.6-3.6-3.6v-3.4c-2.7-.2-5.5-.9-7.7-2-1.9-.9-2.7-3-2-4.9.6-1.6 2.1-2.6 3.7-2.6.6 0 1.1.1 1.6.4 1.5.7 4 1.5 7 1.5 4 0 6.7-2.1 6.7-5.3 0-2.9-2-4.8-6.9-6.8-6.4-2.5-12.3-5.9-12.3-13.3 0-6.1 4-10.8 10.4-12.3v-3.6c0-2 1.6-3.6 3.6-3.6s3.6 1.6 3.6 3.6v3.1c2.2.2 4.1.7 5.9 1.4 1.9.8 2.9 3 2.1 5-.6 1.5-2 2.5-3.7 2.5-.5 0-1-.1-1.5-.3-1.8-.7-3.8-1.1-5.9-1.1-4.3 0-5.8 2.3-5.8 4.4 0 2.6 1.7 4 7.6 6.5 8.1 3.3 11.6 7.5 11.6 14 0 6.3-4.3 11.4-10.9 12.9v3.8c.2 2.1-1.4 3.7-3.5 3.7z"/><path d="m16.5 3.4c1.2 0 2.1 1 2.1 2.1v4.6c2.9.1 5.1.7 6.9 1.4 1.2.5 1.8 1.9 1.3 3.1-.4 1-1.3 1.6-2.3 1.6-.3 0-.6-.1-.9-.2-1.6-.6-3.7-1.2-6.4-1.2-5.3 0-7.3 3.2-7.3 5.9 0 3.6 2.6 5.4 8.6 7.9 7.1 2.9 10.7 6.5 10.7 12.6 0 5.4-3.8 10.6-10.9 11.7v5c0 1.2-1 2.1-2.1 2.1h-.1c-1.2 0-2.1-1-2.1-2.1v-4.8c-3.1-.1-6.2-.8-8.6-1.9-1.1-.5-1.7-1.8-1.3-3 .4-1 1.3-1.6 2.3-1.6.3 0 .7.1 1 .2 2.2 1 4.8 1.7 7.6 1.7 4.9 0 8.2-2.8 8.2-6.8 0-3.8-2.7-6.1-7.8-8.2-7-2.8-11.4-5.9-11.4-11.9 0-5.7 4.1-10.1 10.4-11.1v-4.8c-.1-1.3.9-2.3 2.1-2.3zm0-3c-2.8 0-5.1 2.3-5.1 5.1v2.4c-6.4 1.9-10.4 7-10.4 13.5 0 8.4 6.7 12.1 13.3 14.7 5.4 2.2 5.9 3.9 5.9 5.4 0 2.8-2.8 3.8-5.2 3.8-2.7 0-5-.8-6.4-1.4-.7-.3-1.5-.5-2.3-.5-2.3 0-4.3 1.4-5.1 3.6-1 2.7.2 5.6 2.8 6.8 2 1 4.4 1.6 6.9 2v2.1c0 2.8 2.3 5.1 5.1 5.1h.1c2.8 0 5.1-2.3 5.1-5.1v-2.7c6.6-2 10.9-7.4 10.9-14.1 0-9.1-6.7-13-12.6-15.4-6.2-2.6-6.7-3.7-6.7-5.1 0-.9.4-2.9 4.3-2.9 1.9 0 3.7.3 5.3 1 .7.3 1.4.4 2.1.4 2.3 0 4.3-1.4 5.1-3.5 1-2.7-.3-5.8-3-6.9-1.5-.6-3.2-1.1-5-1.3v-1.8c0-2.9-2.3-5.2-5.1-5.2z"/></g><g stroke-linecap="round" stroke-linejoin="round" stroke-width="3"><path d="m25.6 8.1c-3.6 2.2-7 4.8-10.2 7.9-20.4 20.4-20.4 53.4 0 73.8 19.1 19.1 49.4 20.3 69.9 3.5l9.3 9.3c-.8 1.3-.7 3 .4 4.1l33.7 33.7c1.3 1.3 3.4 1.3 4.6 0l6.5-6.5c1.3-1.3 1.3-3.4 0-4.6l-33.7-33.7c-1.1-1.1-2.9-1.3-4.1-.4l-9.3-9.3c16.8-20.5 15.6-50.8-3.5-69.9-10.4-10.4-24.1-15.5-37.7-15.3"/><path d="m39.2 2.4c-.8.2-1.5.4-2.3.6"/><path d="m87.6 29.9c4.3 6.6 6.8 14.5 6.8 23 0 18.6-12 34.3-28.7 40"/><path d="m16.3 75.2c-4-6.5-6.3-14.1-6.3-22.3 0-23.3 18.9-42.2 42.2-42.2 3 0 6 .3 8.9.9"/><path d="m32.6 90.4c-4-2.1-7.6-4.8-10.7-8"/></g></g></svg>

<?xml version="1.0" encoding="UTF-8"?>
<svg width="145px" height="144px" viewBox="0 0 145 144" version="1.1" xmlns="http://www.w3.org/2000/svg" xmlns:xlink="http://www.w3.org/1999/xlink">
    <!-- Generator: Sketch 51.2 (57519) - http://www.bohemiancoding.com/sketch -->
    <title>Searcg_Currency</title>
    <desc>Created with Sketch.</desc>
    <defs></defs>
    <g id="Page-1" stroke="none" stroke-width="1" fill="none" fill-rule="evenodd">
        <g id="Searcg_Currency" transform="translate(2.000000, 1.000000)">
            <path d="M15.4,89.8 C34.5,108.9 64.8,110.1 85.3,93.3 L94.6,102.6 C93.8,103.9 93.9,105.6 95,106.7 L128.7,140.4 C130,141.7 132.1,141.7 133.3,140.4 L139.8,133.9 C141.1,132.6 141.1,130.5 139.8,129.3 L106.1,95.6 C105,94.5 103.2,94.3 102,95.2 L92.7,85.9 C109.5,65.4 108.3,35.1 89.2,16 C68.8,-4.4 35.8,-4.4 15.4,16 C-5,36.4 -5,69.5 15.4,89.8 Z" id="Shape" class="fill-neutral" fill-rule="nonzero"></path>
            <path d="M138.6,135.4 L132.3,141.7 C131.1,142.9 129.1,142.9 127.8,141.7 L95.2,109.1 C94.1,108 94,106.3 94.8,105.1 L93.1,103.3 L84.7,94.1 C64.9,110.3 35.3,109.1 16.8,90.7 C-2.9,71 -1.5,41.1 18.2,21.4 C37.9,1.7 69.9,1.7 89.5,21.4 C108,39.9 109.1,69.2 92.9,89 L100,96.2 L101.8,98 C103,97.2 104.7,97.3 105.8,98.4 L138.4,131 C139.8,132.1 139.8,134.2 138.6,135.4 Z" id="Shape" class="fill-primary-200" fill-rule="nonzero"></path>
            <path d="M139.6,134.4 L133.3,140.7 C132.1,141.9 130.1,141.9 128.8,140.7 L96.2,108.1 C95.1,107 95,105.3 95.8,104.1 L94.1,102.3 C96.4,99.9 98.8,97.5 101.1,95.1 L102,95.6 C103.2,94.8 104.9,94.9 106,96 L139.5,130 C140.8,131.1 140.8,133.2 139.6,134.4 Z" id="Shape" class="fill-primary-500" fill-rule="nonzero"></path>
            <g id="Group" transform="translate(36.000000, 21.000000)" fill-rule="nonzero">
                <path d="M16,61.5 C14,61.5 12.4,59.9 12.4,57.9 L12.4,54.5 C9.7,54.3 6.9,53.6 4.7,52.5 C2.8,51.6 2,49.5 2.7,47.6 C3.3,46 4.8,45 6.4,45 C7,45 7.5,45.1 8,45.4 C9.5,46.1 12,46.9 15,46.9 C19,46.9 21.7,44.8 21.7,41.6 C21.7,38.7 19.7,36.8 14.8,34.8 C8.4,32.3 2.5,28.9 2.5,21.5 C2.5,15.4 6.5,10.7 12.9,9.2 L12.9,5.6 C12.9,3.6 14.5,2 16.5,2 C18.5,2 20.1,3.6 20.1,5.6 L20.1,8.7 C22.3,8.9 24.2,9.4 26,10.1 C27.9,10.9 28.9,13.1 28.1,15.1 C27.5,16.6 26.1,17.6 24.4,17.6 C23.9,17.6 23.4,17.5 22.9,17.3 C21.1,16.6 19.1,16.2 17,16.2 C12.7,16.2 11.2,18.5 11.2,20.6 C11.2,23.2 12.9,24.6 18.8,27.1 C26.9,30.4 30.4,34.6 30.4,41.1 C30.4,47.4 26.1,52.5 19.5,54 L19.5,57.8 C19.7,59.9 18.1,61.5 16,61.5 Z" id="Shape" class="fill-neutral"></path>
                <path d="M16.5,3.4 C17.7,3.4 18.6,4.4 18.6,5.5 L18.6,10.1 C21.5,10.2 23.7,10.8 25.5,11.5 C26.7,12 27.3,13.4 26.8,14.6 C26.4,15.6 25.5,16.2 24.5,16.2 C24.2,16.2 23.9,16.1 23.6,16 C22,15.4 19.9,14.8 17.2,14.8 C11.9,14.8 9.9,18 9.9,20.7 C9.9,24.3 12.5,26.1 18.5,28.6 C25.6,31.5 29.2,35.1 29.2,41.2 C29.2,46.6 25.4,51.8 18.3,52.9 L18.3,57.9 C18.3,59.1 17.3,60 16.2,60 L16.1,60 C14.9,60 14,59 14,57.9 L14,53.1 C10.9,53 7.8,52.3 5.4,51.2 C4.3,50.7 3.7,49.4 4.1,48.2 C4.5,47.2 5.4,46.6 6.4,46.6 C6.7,46.6 7.1,46.7 7.4,46.8 C9.6,47.8 12.2,48.5 15,48.5 C19.9,48.5 23.2,45.7 23.2,41.7 C23.2,37.9 20.5,35.6 15.4,33.5 C8.4,30.7 4,27.6 4,21.6 C4,15.9 8.1,11.5 14.4,10.5 L14.4,5.7 C14.3,4.4 15.3,3.4 16.5,3.4 Z M16.5,0.4 C13.7,0.4 11.4,2.7 11.4,5.5 L11.4,7.9 C5,9.8 1,14.9 1,21.4 C1,29.8 7.7,33.5 14.3,36.1 C19.7,38.3 20.2,40 20.2,41.5 C20.2,44.3 17.4,45.3 15,45.3 C12.3,45.3 10,44.5 8.6,43.9 C7.9,43.6 7.1,43.4 6.3,43.4 C4,43.4 2,44.8 1.2,47 C0.2,49.7 1.4,52.6 4,53.8 C6,54.8 8.4,55.4 10.9,55.8 L10.9,57.9 C10.9,60.7 13.2,63 16,63 L16.1,63 C18.9,63 21.2,60.7 21.2,57.9 L21.2,55.2 C27.8,53.2 32.1,47.8 32.1,41.1 C32.1,32 25.4,28.1 19.5,25.7 C13.3,23.1 12.8,22 12.8,20.6 C12.8,19.7 13.2,17.7 17.1,17.7 C19,17.7 20.8,18 22.4,18.7 C23.1,19 23.8,19.1 24.5,19.1 C26.8,19.1 28.8,17.7 29.6,15.6 C30.6,12.9 29.3,9.8 26.6,8.7 C25.1,8.1 23.4,7.6 21.6,7.4 L21.6,5.6 C21.6,2.7 19.3,0.4 16.5,0.4 Z" id="Shape" class="fill-primary"></path>
            </g>
            <path d="M25.6,8.1 C22,10.3 18.6,12.9 15.4,16 C-5,36.4 -5,69.4 15.4,89.8 C34.5,108.9 64.8,110.1 85.3,93.3 L94.6,102.6 C93.8,103.9 93.9,105.6 95,106.7 L128.7,140.4 C130,141.7 132.1,141.7 133.3,140.4 L139.8,133.9 C141.1,132.6 141.1,130.5 139.8,129.3 L106.1,95.6 C105,94.5 103.2,94.3 102,95.2 L92.7,85.9 C109.5,65.4 108.3,35.1 89.2,16 C78.8,5.6 65.1,0.5 51.5,0.7" id="Shape" class="stroke-primary" stroke-width="3" stroke-linecap="round" stroke-linejoin="round"></path>
            <path d="M39.2,2.4 C38.4,2.6 37.7,2.8 36.9,3" id="Shape" class="stroke-primary" stroke-width="3" stroke-linecap="round" stroke-linejoin="round"></path>
            <path d="M87.6,29.9 C91.9,36.5 94.4,44.4 94.4,52.9 C94.4,71.5 82.4,87.2 65.7,92.9" id="Shape" class="stroke-primary" stroke-width="3" stroke-linecap="round" stroke-linejoin="round"></path>
            <path d="M16.3,75.2 C12.3,68.7 10,61.1 10,52.9 C10,29.6 28.9,10.7 52.2,10.7 C55.2,10.7 58.2,11 61.1,11.6" id="Shape" class="stroke-primary" stroke-width="3" stroke-linecap="round" stroke-linejoin="round"></path>
            <path d="M32.6,90.4 C28.6,88.3 25,85.6 21.9,82.4" id="Shape" class="stroke-primary" stroke-width="3" stroke-linecap="round" stroke-linejoin="round"></path>
        </g>
    </g>
</svg>
